svg/LeftHanded/w-resize.svg

<?xml version="1.0" encoding="UTF-8" standalone="no"?>
<!-- Created with Inkscape (http://www.inkscape.org/) -->
<svg
   xmlns:svg="http://www.w3.org/2000/svg"
   xmlns="http://www.w3.org/2000/svg"
   xmlns:xlink="http://www.w3.org/1999/xlink"
   version="1.0"
   width="500"
   height="500"
   viewBox="0 0 1000 1000"
   id="page"
   xml:space="preserve"><defs
     id="defs38"><linearGradient
       id="linearGradient2218"><stop
         id="stop2220"
         style="stop-color:#999999;stop-opacity:1"
         offset="0" /><stop
         id="stop2222"
         style="stop-color:#555555;stop-opacity:1"
         offset="1" /></linearGradient><linearGradient
       x1="732.75"
       y1="113.8158"
       x2="732.75"
       y2="515.21661"
       id="linearGradient4301"
       xlink:href="#linearGradient2218"
       gradientUnits="userSpaceOnUse"
       gradientTransform="translate(6.6750917e-5,-7.162454e-5)" /></defs><path
     d="M 690.7004,315.19114 C 690.7004,327.91914 526.0594,456.02414 513.3454,443.30814 C 500.6164,430.57914 487.0534,391.55914 474.3244,378.83014 C 461.5964,366.10114 412.4614,368.51614 394.4614,368.51614 C 385.4614,368.51614 394.4614,521.51614 385.4614,530.51614 C 376.4614,539.51614 322.4614,539.51614 313.4614,530.51614 C 304.4614,521.51614 313.9694,325.13314 313.4614,314.51614 C 312.7544,299.66614 304.4614,107.51614 313.4614,98.516148 C 322.4614,89.516148 376.4614,89.516148 385.4614,98.516148 C 394.4614,107.51614 385.4614,260.51614 394.4614,260.51614 C 412.4614,260.51614 461.5974,264.27714 474.3244,251.54814 C 487.0534,238.82014 499.3534,201.06314 513.0124,187.40314 C 526.0954,174.32514 690.7004,300.97814 690.7004,315.19114 z"
     id="path4286"
     style="opacity:1;fill:url(#linearGradient4301);fill-opacity:1;stroke:#000000;stroke-width:20;stroke-linecap:round;stroke-linejoin:round;stroke-miterlimit:1" /></svg>

<?xml version="1.0" encoding="UTF-8" standalone="no"?>
<!-- Created with Inkscape (http://www.inkscape.org/) -->

<svg
   xmlns:dc="http://purl.org/dc/elements/1.1/"
   xmlns:cc="http://creativecommons.org/ns#"
   xmlns:rdf="http://www.w3.org/1999/02/22-rdf-syntax-ns#"
   xmlns:svg="http://www.w3.org/2000/svg"
   xmlns="http://www.w3.org/2000/svg"
   xmlns:xlink="http://www.w3.org/1999/xlink"
   version="1.0"
   width="500"
   height="500"
   viewBox="0 0 1000 1000"
   id="page"
   xml:space="preserve"><metadata
     id="metadata11"><rdf:RDF><cc:Work
         rdf:about=""><dc:format>image/svg+xml</dc:format><dc:type
           rdf:resource="http://purl.org/dc/dcmitype/StillImage" /><dc:title></dc:title></cc:Work></rdf:RDF></metadata><defs
     id="defs38"><linearGradient
       id="linearGradient2218"><stop
         id="stop2220"
         style="stop-color:#999999;stop-opacity:1"
         offset="0" /><stop
         id="stop2222"
         style="stop-color:#555555;stop-opacity:1"
         offset="1" /></linearGradient><linearGradient
       x1="732.75"
       y1="113.8158"
       x2="732.75"
       y2="515.21661"
       id="linearGradient4301"
       xlink:href="#linearGradient2218"
       gradientUnits="userSpaceOnUse"
       gradientTransform="translate(6.6750917e-5,-7.162454e-5)" /><linearGradient
       x1="732.75"
       y1="113.8158"
       x2="732.75"
       y2="515.21661"
       id="linearGradient4301-4"
       xlink:href="#linearGradient2218-6"
       gradientUnits="userSpaceOnUse"
       gradientTransform="translate(7.162454e-5,-7.162454e-5)" /><linearGradient
       id="linearGradient2218-6"><stop
         id="stop2220-9"
         style="stop-color:#999999;stop-opacity:1"
         offset="0" /><stop
         id="stop2222-3"
         style="stop-color:#555555;stop-opacity:1"
         offset="1" /></linearGradient><filter
       x="-0.26016751"
       y="-0.22273421"
       width="1.520335"
       height="1.4454684"
       color-interpolation-filters="sRGB"
       id="filter3790"><feGaussianBlur
         stdDeviation="41.34504"
         id="feGaussianBlur3792" /></filter></defs><path
     d="m 1156.7572,483.72585 c 0,12.728 164.641,140.833 177.355,128.117 12.729,-12.729 26.292,-51.749 39.021,-64.478 12.728,-12.729 61.863,-10.314 79.863,-10.314 9,0 0,153 9,162 9,9 63,9 72,0 9,-9 -0.508,-205.383 0,-216 0.707,-14.85 9,-207.00001 0,-216 -9,-9 -63,-9 -72,0 -9,8.99999 0,161.99999 -9,161.99999 -18,0 -67.136,3.761 -79.863,-8.968 -12.729,-12.728 -25.029,-50.485 -38.688,-64.145 -13.083,-13.078 -177.688,113.57501 -177.688,127.78801 z"
     transform="matrix(-1.2,0,0,1.2,2116.9491,-145.14488)"
     id="path4286-4"
     style="opacity:0.15;fill:#111111;fill-opacity:1;stroke:none;filter:url(#filter3790)" /><path
     d="m 690.7004,315.19114 c 0,12.728 -164.641,140.833 -177.355,128.117 -12.729,-12.729 -26.292,-51.749 -39.021,-64.478 -12.728,-12.729 -61.863,-10.314 -79.863,-10.314 -9,0 0,153 -9,162 -9,9 -63,9 -72,0 -9,-9 0.508,-205.383 0,-216 -0.707,-14.85 -9,-207 0,-215.999992 9,-9 63,-9 72,0 9,8.999992 0,161.999992 9,161.999992 18,0 67.136,3.761 79.863,-8.968 12.729,-12.728 25.029,-50.485 38.688,-64.145 13.083,-13.078 177.688,113.575 177.688,127.788 z"
     id="path4286"
     style="opacity:0.75;fill:url(#linearGradient4301);fill-opacity:1;stroke:#000000;stroke-width:20;stroke-linecap:round;stroke-linejoin:round;stroke-miterlimit:1" /></svg>
